assets/Goblin/Flat/goblin_flat.svg

<svg width="32" height="32" viewBox="0 0 32 32" fill="none" xmlns="http://www.w3.org/2000/svg">
<path d="M16 30C9.37 30 4 24.63 4 18V4.08C4 2.93 4.93 2 6.08 2H25.92C27.07 2 28 2.93 28 4.08V18C28 24.63 22.63 30 16 30Z" fill="#F8312F"/>
<path d="M18.8648 26.0884C17.2478 24.5675 14.7006 24.6467 13.1784 26.2652C12.8 26.6674 12.1671 26.6868 11.7648 26.3084C11.3625 25.93 11.3432 25.2972 11.7215 24.8949C13.9993 22.4733 17.8121 22.3525 20.2351 24.6316C20.6374 25.01 20.6568 25.6429 20.2784 26.0452C19.9 26.4474 19.2671 26.4668 18.8648 26.0884Z" fill="#FFF478"/>
<path d="M15 10.5C15 12.9853 12.9853 15 10.5 15C8.01472 15 6 12.9853 6 10.5C6 8.01472 8.01472 6 10.5 6C12.9853 6 15 8.01472 15 10.5Z" fill="white"/>
<path d="M26 10.5C26 12.9853 23.9853 15 21.5 15C19.0147 15 17 12.9853 17 10.5C17 8.01472 19.0147 6 21.5 6C23.9853 6 26 8.01472 26 10.5Z" fill="white"/>
<path d="M8 1C8.55228 1 9 1.44772 9 2C9 4.44891 10.9835 6.44 13.44 6.44C13.9923 6.44 14.44 6.88772 14.44 7.44C14.44 7.99228 13.9923 8.44 13.44 8.44C9.87652 8.44 7 5.55109 7 2C7 1.44772 7.44772 1 8 1Z" fill="#533566"/>
<path d="M24.0001 1C24.5523 1 25.0001 1.44772 25.0001 2C25.0001 5.55109 22.1235 8.44 18.5601 8.44C18.0078 8.44 17.5601 7.99228 17.5601 7.44C17.5601 6.88772 18.0078 6.44 18.5601 6.44C21.0166 6.44 23.0001 4.44891 23.0001 2C23.0001 1.44772 23.4478 1 24.0001 1Z" fill="#533566"/>
<path d="M14 12C14 13.1046 13.1046 14 12 14C10.8954 14 10 13.1046 10 12C10 10.8954 10.8954 10 12 10C13.1046 10 14 10.8954 14 12Z" fill="#533566"/>
<path d="M22 12C22 13.1046 21.1046 14 20 14C18.8954 14 18 13.1046 18 12C18 10.8954 18.8954 10 20 10C21.1046 10 22 10.8954 22 12Z" fill="#533566"/>
<path d="M18.8893 23H24.2846C25.0216 23 25.2772 22.0244 24.6285 21.6829L16 17V17.1212C16 17.0322 15.9019 16.973 15.8234 17.0125L7.3639 21.6661C6.72601 22.0218 6.98116 23 7.70738 23H12.997C14.6555 23 16 21.6464 16 19.9766V20.1317C16 21.7122 17.2874 23 18.8893 23Z" fill="#533566"/>
<path d="M28.48 20H17.46C16.08 20 14.96 18.88 14.96 17.5C14.96 16.12 16.08 15 17.46 15H28.48C29.86 15 30.98 16.12 30.98 17.5C30.98 18.88 29.86 20 28.48 20Z" fill="#CA0B4A"/>
</svg>

<svg xmlns="http://www.w3.org/2000/svg" width="32" height="32" fill="none"><path fill="#F8312F" d="M16 30C9.37 30 4 24.63 4 18V4.08C4 2.93 4.93 2 6.08 2h19.84C27.07 2 28 2.93 28 4.08V18c0 6.63-5.37 12-12 12Z"/><path fill="#FFF478" d="M18.865 26.088a4.024 4.024 0 0 0-5.687.177 1 1 0 0 1-1.457-1.37 6.024 6.024 0 0 1 8.514-.263 1 1 0 1 1-1.37 1.456Z"/><path fill="#fff" d="M15 10.5a4.5 4.5 0 1 1-9 0 4.5 4.5 0 0 1 9 0ZM26 10.5a4.5 4.5 0 1 1-9 0 4.5 4.5 0 0 1 9 0Z"/><path fill="#533566" d="M8 1a1 1 0 0 1 1 1 4.44 4.44 0 0 0 4.44 4.44 1 1 0 1 1 0 2A6.44 6.44 0 0 1 7 2a1 1 0 0 1 1-1ZM24 1a1 1 0 0 1 1 1 6.44 6.44 0 0 1-6.44 6.44 1 1 0 1 1 0-2A4.44 4.44 0 0 0 23 2a1 1 0 0 1 1-1ZM14 12a2 2 0 1 1-4 0 2 2 0 0 1 4 0ZM22 12a2 2 0 1 1-4 0 2 2 0 0 1 4 0ZM18.89 23h5.395c.737 0 .992-.976.343-1.317L16 17v.121a.123.123 0 0 0-.177-.108l-8.46 4.653c-.637.356-.382 1.334.344 1.334h5.29A3.013 3.013 0 0 0 16 19.977v.155A2.877 2.877 0 0 0 18.89 23Z"/><path fill="#CA0B4A" d="M28.48 20H17.46a2.5 2.5 0 0 1 0-5h11.02a2.5 2.5 0 0 1 0 5Z"/></svg>
